Sources/FrostedUI/Resources/Icons.xcassets/quoteLeft20.imageset/quote-left-20.svg

<svg width="20" height="20" viewBox="0 0 20 20" fill="none" xmlns="http://www.w3.org/2000/svg" data-fui-icon="true">
  <path
    d="M6.42065 4.26813C6.70998 4.08019 7.09678 4.16156 7.28491 4.45074C7.47301 4.74017 7.39074 5.12788 7.10132 5.31598C5.75914 6.18827 4.6851 6.94622 3.95483 7.9527C3.69753 8.30735 3.47902 8.70007 3.30933 9.14899C3.9129 8.74345 4.64317 8.50739 5.42554 8.50739C7.47665 8.50762 9.16675 10.1325 9.16675 12.1705C9.16662 14.2082 7.47657 15.8333 5.42554 15.8336C3.38022 15.8336 1.69316 14.2177 1.68335 12.188C1.56893 10.0176 2.04012 8.46291 2.94312 7.21832C3.82676 6.00047 5.09157 5.1319 6.42065 4.26813ZM15.5867 4.26813C15.876 4.08006 16.2637 4.16143 16.4519 4.45074C16.64 4.74015 16.5577 5.12786 16.2683 5.31598C14.9261 6.1883 13.8522 6.94619 13.1218 7.9527C12.8645 8.30744 12.6451 8.69991 12.4753 9.14899C13.0789 8.74337 13.8092 8.50744 14.5916 8.50739C16.6429 8.50739 18.3337 10.1324 18.3337 12.1705C18.3336 14.2084 16.6428 15.8336 14.5916 15.8336C12.5464 15.8334 10.8601 14.2176 10.8503 12.188C10.7359 10.0176 11.2072 8.46291 12.1101 7.21832C12.9937 6.00066 14.2578 5.13179 15.5867 4.26813Z"
    fill="currentColor"
  />
</svg>

<svg xmlns="http://www.w3.org/2000/svg" width="20" height="20" fill="none" data-fui-icon="true" viewBox="0 0 20 20"><path fill="currentColor" d="M6.42 4.268a.625.625 0 1 1 .681 1.048c-1.342.872-2.416 1.63-3.146 2.637a5 5 0 0 0-.646 1.196 3.8 3.8 0 0 1 2.117-.642c2.05 0 3.74 1.626 3.74 3.664 0 2.037-1.69 3.662-3.74 3.663-2.046 0-3.733-1.616-3.743-3.646-.114-2.17.357-3.725 1.26-4.97C3.827 6 5.092 5.132 6.421 4.268m9.167 0a.626.626 0 1 1 .681 1.048c-1.342.872-2.416 1.63-3.146 2.637a5 5 0 0 0-.647 1.196 3.8 3.8 0 0 1 2.117-.642c2.05 0 3.742 1.625 3.742 3.664 0 2.037-1.691 3.663-3.742 3.663-2.046 0-3.732-1.616-3.742-3.646-.114-2.17.357-3.725 1.26-4.97.884-1.217 2.148-2.086 3.477-2.95"/></svg>
